src/assets/logo.svg

<svg width="118" height="30" viewBox="0 0 118 30" fill="none" xmlns="http://www.w3.org/2000/svg">
    <path
        d="M30.003 13.3516V15.8242C30.003 20.1374 28.6474 23.5852 25.9362 26.1676C23.2527 28.7225 19.836 30 15.6862 30C11.1768 30 7.42813 28.5577 4.44028 25.6731C1.48009 22.7885 0 19.2445 0 15.0412C0 10.8379 1.46626 7.28022 4.39878 4.36813C7.35897 1.45604 10.9693 0 15.2297 0C17.9409 0 20.417 0.604396 22.6579 1.81319C24.9264 3.02198 26.6832 4.61538 27.9281 6.59341L22.2844 9.80769C21.6481 8.81868 20.6936 8.00824 19.421 7.37637C18.1761 6.74451 16.7652 6.42857 15.1882 6.42857C12.726 6.42857 10.6788 7.23901 9.04655 8.85989C7.44196 10.4808 6.63967 12.5549 6.63967 15.0824C6.63967 17.5824 7.46963 19.6291 9.12954 21.2225C10.7895 22.7885 13.0027 23.5714 15.7692 23.5714C19.6147 23.5714 22.0907 22.0879 23.1973 19.1209H15.4372V13.3516H30.003Z"
        fill="white" />
    <path
        d="M44.7432 0.576923C47.5927 0.576923 49.9996 1.53846 51.9638 3.46154C53.9281 5.38462 54.9102 7.71978 54.9102 10.467C54.9102 13.2143 53.9281 15.5495 51.9638 17.4725C49.9996 19.3956 47.5927 20.3571 44.7432 20.3571H40.3859V29.4231H33.7462V0.576923H44.7432ZM44.7432 14.1758C45.7668 14.1758 46.6106 13.8187 47.2746 13.1044C47.9385 12.3901 48.2705 11.511 48.2705 10.467C48.2705 9.42308 47.9385 8.54396 47.2746 7.82967C46.6106 7.11538 45.7668 6.75824 44.7432 6.75824H40.3859V14.1758H44.7432Z"
        fill="white" />
    <path d="M77.3223 0.576923V6.92308H69.8527V29.4231H63.213V6.92308H55.7434V0.576923H77.3223Z"
        fill="white" />
</svg>

<svg xmlns="http://www.w3.org/2000/svg" width="118" height="30" fill="none"><path fill="#fff" d="M30.003 13.352v2.472q0 6.47-4.067 10.344Q21.911 30 15.686 30 8.922 30 4.44 25.673 0 21.347 0 15.041 0 8.737 4.399 4.368 8.839 0 15.229 0q4.068 0 7.429 1.813 3.402 1.813 5.27 4.78l-5.644 3.215q-.954-1.485-2.863-2.432-1.867-.947-4.233-.947-3.694 0-6.141 2.43-2.407 2.433-2.407 6.223 0 3.75 2.49 6.14 2.49 2.35 6.64 2.35 5.767 0 7.427-4.451h-7.76v-5.77zM44.743.577q4.275 0 7.22 2.885 2.947 2.884 2.947 7.005t-2.946 7.006-7.22 2.884h-4.358v9.066h-6.64V.577zm0 13.599q1.536 0 2.532-1.072.995-1.071.995-2.637t-.995-2.637q-.996-1.072-2.532-1.072h-4.357v7.418zM77.322.577v6.346h-7.47v22.5h-6.639v-22.5h-7.47V.577z"/></svg>
